X:1
T:Four Old Whores
M:6/8
L:1/8
K:C
 G2 G| C2 C C2 E| G2 G G3| A2 G A2 B| c3- c2 c| ccc c2 A| G2 G E3|\
 G2 G FED| C3 z2 z| C2 C C2 E| GGG G2 G| AAG A2 B| c3- c2 c| c2 c c2 A|\
 G2 G E2 E| GGG F2 D| C3||
